docs/icons/antm.svg

<?xml version="1.0" encoding="UTF-8"?>
<svg width="160px" height="160px" viewBox="0 0 160 160" version="1.1" xmlns="http://www.w3.org/2000/svg" xmlns:xlink="http://www.w3.org/1999/xlink">
    <title>图形</title>
    <defs>
        <linearGradient x1="55.2905824%" y1="30.2400227%" x2="5.8956238%" y2="78.3822166%" id="linearGradient-1">
            <stop stop-color="#29CDFF" offset="0%"></stop>
            <stop stop-color="#148EFF" offset="36.2446377%"></stop>
            <stop stop-color="#0A60FF" offset="100%"></stop>
        </linearGradient>
        <linearGradient x1="87.3789235%" y1="27.8488943%" x2="25.8257448%" y2="80.2051011%" id="linearGradient-2">
            <stop stop-color="#FA816E" offset="0%"></stop>
            <stop stop-color="#F74A5C" offset="48.0123264%"></stop>
            <stop stop-color="#F51D2C" offset="100%"></stop>
            <stop stop-color="#F51D2C" offset="100%"></stop>
            <stop stop-color="#F51D2C" offset="100%"></stop>
        </linearGradient>
        <linearGradient x1="50%" y1="-22.9977195%" x2="50%" y2="100%" id="linearGradient-3">
            <stop stop-color="#FA8E7D" offset="0%"></stop>
            <stop stop-color="#F74A5C" offset="49.6339425%"></stop>
            <stop stop-color="#F51D2C" offset="100%"></stop>
        </linearGradient>
        <linearGradient x1="50%" y1="0%" x2="32.8245806%" y2="116.815793%" id="linearGradient-4">
            <stop stop-color="#4285EB" offset="0%"></stop>
            <stop stop-color="#2EC7FF" offset="100%"></stop>
        </linearGradient>
    </defs>
    <g id="页面-1" stroke="none" stroke-width="1" fill="none" fill-rule="evenodd">
        <g id="图形" transform="translate(-240.000000, -240.000000)">
            <g transform="translate(240.000000, 240.000000)">
                <rect id="蒙版" x="0" y="0" width="160" height="160"></rect>
                <g transform="translate(4.000000, 34.000000)">
                    <path d="M47.5487749,2.32095337 C55.330265,-2.15684064 65.2683783,0.521334142 69.7461723,8.30282418 L69.7461723,8.30282418 L110.010941,78.2747559 C112.507454,82.6131853 111.035571,88.1532061 106.714971,90.6804515 C106.70106,90.6885884 106.687127,90.696688 106.673173,90.7047501 C102.371199,93.1901663 96.8689331,91.7175558 94.3835169,87.4155824 L94.3835169,87.4155824 L58.1482265,24.6964072 C57.8806198,24.2332105 57.4958197,23.8486016 57.0324901,23.5812252 C55.5744919,22.7398494 53.710481,23.2397207 52.8691052,24.6977189 L52.8691052,24.6977189 L16.5871433,87.5697898 C16.5736951,87.5930938 16.5601408,87.6163363 16.5464808,87.6395167 C14.0638539,91.8524078 8.63606414,93.255064 4.42317305,90.7724372 C0.158828816,88.2594893 -1.2871543,82.781618 1.18137323,78.491407 L1.18137323,78.491407 L41.566565,8.30341354 C42.9976641,5.81621541 45.0616367,3.7521565 47.5487749,2.32095337 Z" id="形状结合" fill="url(#linearGradient-1)"></path>
                    <path d="M108.14407,4.51739317 C108.147347,4.52301923 108.150619,4.52864881 108.153885,4.5342819 L135.691801,52.0361125 C138.219257,56.3958759 136.742954,61.9787099 132.390806,64.5192565 C128.05595,67.0497084 122.490519,65.5869504 119.960067,61.2520952 C119.955329,61.2439774 119.950603,61.2358522 119.945889,61.2277197 L92.4047651,13.7096675 C89.8792897,9.35234078 91.3575208,3.77299489 95.709165,1.23774055 C100.04862,-1.29041247 105.615917,0.177938025 108.14407,4.51739317 Z" id="形状结合" fill="url(#linearGradient-2)"></path>
                    <path d="M142.907411,91.7231751 C147.929109,91.7231751 152,87.6595745 152,82.6468691 C152,77.6341637 147.929109,73.5705632 142.907411,73.5705632 C137.885712,73.5705632 133.814822,77.6341637 133.814822,82.6468691 C133.814822,87.6595745 137.885712,91.7231751 142.907411,91.7231751 Z" id="椭圆形备份-7" fill="url(#linearGradient-3)"></path>
                    <path d="M65.5665433,14.7074499 C70.6076588,14.7074499 74.3768737,16.6653921 76.8741881,20.5812766 L76.8741881,20.5812766 L110.011075,78.2619791 C112.506334,82.6054252 111.024504,88.1486949 106.694776,90.6676817 C106.682394,90.6748855 106.669994,90.6820598 106.657578,90.6892045 C102.343438,93.1716628 96.8337062,91.6867914 94.3512478,87.3726513 L94.3512478,87.3726513 L63.4352337,33.6452585 L58.1345871,24.684268 C57.8608166,24.2214462 57.469477,23.8392893 57.0002864,23.5765832 C55.5314978,22.7541891 53.6741272,23.2781953 52.851733,24.7469839 L52.851733,24.7469839 L52.8127546,24.816599 C56.274165,18.0771663 60.5254279,14.7074499 65.5665433,14.7074499 Z" id="形状结合" fill="url(#linearGradient-4)"></path>
                </g>
            </g>
        </g>
    </g>
</svg>

<svg xmlns="http://www.w3.org/2000/svg" width="160" height="160" xmlns:v="https://vecta.io/nano"><defs><linearGradient x1="55.2905824%" y1="30.2400227%" x2="5.8956238%" y2="78.3822166%" id="A"><stop stop-color="#29cdff" offset="0%"/><stop stop-color="#148eff" offset="36.2446377%"/><stop stop-color="#0a60ff" offset="100%"/></linearGradient><linearGradient x1="87.3789235%" y1="27.8488943%" x2="25.8257448%" y2="80.2051011%" id="B"><stop stop-color="#fa816e" offset="0%"/><stop stop-color="#f74a5c" offset="48.0123264%"/><stop stop-color="#f51d2c" offset="100%"/></linearGradient><linearGradient x1="50%" y1="-22.9977195%" x2="50%" y2="100%" id="C"><stop stop-color="#fa8e7d" offset="0%"/><stop stop-color="#f74a5c" offset="49.6339425%"/><stop stop-color="#f51d2c" offset="100%"/></linearGradient><linearGradient x1="50%" y1="0%" x2="32.8245806%" y2="116.815793%" id="D"><stop stop-color="#4285eb" offset="0%"/><stop stop-color="#2ec7ff" offset="100%"/></linearGradient></defs><g transform="translate(4 34)" fill-rule="evenodd"><path d="M47.549 2.321a16.26 16.26 0 0 1 22.197 5.982h0l40.265 69.972a9.11 9.11 0 0 1-3.296 12.406l-.042.024a9 9 0 0 1-12.29-3.289h0L58.148 24.696a3.05 3.05 0 0 0-5.279.001h0L16.587 87.57l-.041.07c-2.483 4.213-7.91 5.616-12.123 3.133a9.03 9.03 0 0 1-3.242-12.281h0L41.567 8.303c1.431-2.487 3.495-4.551 5.982-5.982z" fill="url(#A)"/><path d="M108.144 4.517l27.548 47.519c2.527 4.36 1.051 9.943-3.301 12.483a9.09 9.09 0 0 1-12.431-3.267l-.014-.024L92.405 13.71c-2.525-4.357-1.047-9.937 3.304-12.472 4.339-2.528 9.907-1.06 12.435 3.28z" fill="url(#B)"/><path d="M142.907 91.723c5.022 0 9.093-4.064 9.093-9.076s-4.071-9.076-9.093-9.076-9.093 4.064-9.093 9.076 4.071 9.076 9.093 9.076z" fill="url(#C)"/><path d="M65.567 14.707c5.041 0 8.81 1.958 11.308 5.874h0l33.137 57.681c2.495 4.343 1.013 9.887-3.316 12.406l-.037.022c-4.314 2.482-9.824.998-12.306-3.317h0L63.435 33.645l-5.301-8.961a3.05 3.05 0 0 0-5.283.063h0l-.039.07c3.461-6.739 7.713-10.109 12.754-10.109z" fill="url(#D)"/></g></svg>
